src/images/svg-to-icon-sprite/youtube-logo.svg

<svg width="25" height="17" viewBox="0 0 25 17" fill="none" xmlns="http://www.w3.org/2000/svg">
<path d="M23.8272 3.65132C23.8272 3.65132 23.5915 1.99251 22.8703 1.26268C21.9553 0.30464 20.9294 0.299251 20.459 0.243275C17.0908 -2.22961e-06 12.039 0 12.039 0H12.0283C12.0283 0 6.97647 -2.22961e-06 3.60826 0.243275C3.13785 0.299251 2.11199 0.30464 1.19701 1.26268C0.47579 1.99359 0.241125 3.65132 0.241125 3.65132C0.241125 3.65132 0 5.59862 0 7.54699V9.37265C0 11.3199 0.241125 13.2673 0.241125 13.2673C0.241125 13.2673 0.47579 14.9261 1.19701 15.6559C2.11307 16.615 3.31547 16.5838 3.85046 16.685C5.77623 16.8701 12.0336 16.9272 12.0336 16.9272C12.0336 16.9272 17.0908 16.9196 20.459 16.6764C20.9294 16.6204 21.9553 16.615 22.8703 15.657C23.5915 14.9261 23.8272 13.2683 23.8272 13.2683C23.8272 13.2683 24.0673 11.321 24.0673 9.37373V7.54808C24.0673 5.59863 23.8272 3.65132 23.8272 3.65132ZM9.54919 11.5848L9.54811 4.82251L16.0509 8.21547L9.54919 11.5848Z" fill="black"/>
</svg>

<svg width="25" height="17" fill="none" xmlns="http://www.w3.org/2000/svg"><path d="M23.827 3.651s-.236-1.658-.957-2.388C21.955.305 20.93.299 20.46.243 17.091 0 12.039 0 12.039 0h-.01s-5.053 0-8.42.243C3.137.3 2.111.305 1.196 1.263.476 1.993.241 3.65.241 3.65S0 5.6 0 7.547v1.826c0 1.947.241 3.894.241 3.894s.235 1.66.956 2.389c.916.959 2.118.928 2.653 1.029 1.926.185 8.184.242 8.184.242s5.057-.007 8.425-.25c.47-.057 1.496-.062 2.411-1.02.721-.73.957-2.389.957-2.389s.24-1.947.24-3.894V7.548c0-1.95-.24-3.897-.24-3.897ZM9.55 11.585V4.823l6.502 3.392-6.502 3.37Z" fill="#000"/></svg>
